resources/svg/target.svg

<svg viewBox="0 0 24 24"><path fill="none" stroke="currentColor" stroke-width="2" d="M23 12c0 6.075-4.925 11-11 11S1 18.075 1 12S5.925 1 12 1s11 4.925 11 11h0zm-5 0c0-3.309-2.691-6-6-6s-6 2.691-6 6s2.691 6 6 6s6-2.691 6-6h0zm-5 0a1 1 0 1 0-2 0a1 1 0 0 0 2 0h0z"/></svg>

<svg xmlns="http://www.w3.org/2000/svg" viewBox="0 0 24 24" fill="currentColor"><path fill="none" stroke="currentColor" stroke-width="2" d="M23,12 C23,18.075 18.075,23 12,23 C5.925,23 1,18.075 1,12 C1,5.925 5.925,1 12,1 C18.075,1 23,5.925 23,12 L23,12 Z M18,12 C18,8.691 15.309,6 12,6 C8.691,6 6,8.691 6,12 C6,15.309 8.691,18 12,18 C15.309,18 18,15.309 18,12 L18,12 Z M13,12 C13,11.448 12.552,11 12,11 C11.448,11 11,11.448 11,12 C11,12.552 11.448,13 12,13 C12.552,13 13,12.552 13,12 L13,12 Z"/></svg>
